X:29
T:GB/7b/29 Johnny Harte
%%VWML:GB-7b-29-0
F:http://www.vwml.org/record/GB/7b/29
C:Transcribed by Simon Furey and Lewis Jones
L:1/8
M:6/8
I:linebreak $
K:Ddor
C | D2 D G2 G | A2 B c2 E | G2 E E2 D | C2 z2 z C | D D D G2 G |$ A2 B c2 E | FDE D2 D | D3- D2 G | A2 G ABc | d3 c2 A |$ G2 E E2 D | C2 z2 z C | D2 D G2 G | A2 B c2 E | FDE D2 D | D3- D2 z |]


